X: 1
T: Tommy Peoples'
M: 4/4
L: 1/8
R: reel
K: Dmaj
A2FB ABdf|edfe fddB|A2FA ABdB|1 AFEG FDDB:|2 AFEG FDD2||
|:FAdA BAdA|(3Bcd ed cAAG|FAdA BAdB|1 AFEG FDDG:|2 AFEG FDD2||
